X:1
T:Wildersmouth, 87.87.47
T:Wildersmouth, 87.87.47
T:Edward John Hopkins, 1879
T:Public Domain Courtesy of the Cyber Hymnal™
C:Edward John Hopkins, 1879
Z:Public Domain
Z:Courtesy of the Cyber Hymnal™
%%score ( 1 2 ) ( 3 4 )
L:1/8
Q:1/4=100
M:3/4
K:E
V:1 treble 
V:2 treble 
V:3 bass 
V:4 bass 
V:1
 [B,E][B,F] | [EG]3 [EG] [EF][EG] | [EB]2 [EA]2 [CG][CF] | [B,E]3 E [EF][DF] | [EG]4 [EG][Ec] | %5
 [DB]3 [DA] [DG][DF] | [DF]2 E2 [CG][CG] | [DF][FG] [F^A]2 [Fc]2 | [DB]4 [DB][DB] | %9
 [Ee]4 [DB]2 E[B,F] [EG]2 [CG]2 | A4 [DF]2 | E4 |] %12
V:2
 x2 | x6 | x6 | x6 | x6 | x6 | x6 | x6 | x6 | x12 | C2 F2 x2 | E4 |] %12
V:3
 [E,G,][E,A,] | [E,B,]3 [E,B,] [E,A,][E,B,] | [A,,C]2 [A,,C]2 [A,,B,][A,,A,] | %3
 [B,,G,]3 [B,,G,] [B,,F,][B,,B,] | [E,B,]4 [E,B,][E,G,] | [B,,F,]3 [B,,C] [B,,B,][B,,A,] | %6
 [C,A,]2 [C,G,]2 [E,G,][E,^A,] | [F,B,][F,D] [F,C]2 [F,^A,]2 | [B,,B,]4 B,[A,B,] | %9
 B,2 C2 [F,A,]2 [E,G,][D,F,] [C,E,]2 [B,,^E,]2 | [A,,F,]2 [F,,C]2 [B,,A,]2 | [E,,E,G,]4 |] %12
V:4
 x2 | x6 | x6 | x6 | x6 | x6 | x6 | x6 | x6 | G,4 x8 | x6 | x4 |] %12

